X:1
T:Old Tom of Oxford
K:D
F:http://www.abrsm.org/forum/lofiversion/index.php/t34951.html 2009-7-8
M:4/4
L:1/4
|: AB/c/ dA | GF    EF/E/     | DF/G/ Ad | cd ec/B/ \
|  AB/c/ dA | GF    E(3A/B/c/ | dA    GF | E2 D2   :|
|: FA    FA | FA    d/c/B/A/  | GB    GB | GB d/c/B/A/ \
|  FA    FG | AB/c/ d(3A/B/c/ | dA    GF | E2 D2   :|
